X: 18839
T: Impeachment
R: reel
M: 4/4
K: Gmajor
|:"G" G2GF GBAG|"D/F#" FGFE FDEF|"Em" G2GF GABd|"Am" cBAG "Cadd9"FE "D" (3FED|
"G" G2GF GABd|"D/F#" cBAG FGAF|"Em" GABd cAFA|1 "Am" GAGF "Cadd"G2 "D" (3DEF:|2 "Am" GAGF "Cadd"G2 "D" (3def||
|:"Em" gagf gbag|"D" fgfe fdef|"Am" gdBG AB "/B" ce|"C" dAFE DE "D" (3FED|
"Em" gagf gdBG|"D" FAGF GABd|"Am" cedc BA "/B" GB|1 "C" AGFD "D" G2 (3def:|2 "C" AGFD "G" G4||

